X:1
T:Title
%%score 1 2 3 4
L:1/8
Q:1/4=60
M:2/2
K:F
V:1 treble transpose=-2 nm="MusicXML Part"
V:2 treble transpose=-7 nm="MusicXML Part"
V:3 treble-8 transpose=-7 nm="MusicXML Part"
V:4 bass nm="MusicXML Part"
V:1
[K:G] E4 B2 A2 | G4 F4 | E2 E2 B4 || d4 ^c2 B2 | A2 A2 ^G4 || z2 B2 B2 G2 | A4 B2 B2- | B2 A2 F4 || %8
w: Lord in thy|wrath re-|prove me not|Though I de-|serve thine ire|Nor yet cor-|rect me in|_ thy rage|
w: For I am|weak there-|fore O Lord,|of mer- cy|me for- bear:|And heal me|Lord, for why?|_ thou knowest,|
w: And now my|foes that|vex- ed me,|the Lord will|soon de- fame:|And sud- den-|ly con- found|_ them all,|
 d4 ^c2 B2 | A2 A2 ^G4 |] %10
w: O Lord I|thee de- sire|
w: my bones do|quake with fear.|
w: to their re-|buke and shame.|
V:2
[K:C] c6 B2- | BA A4 ^G2 | c2 d2 B4 || B3 A/G/ dD E2 | ^F3 E/D/ E4 || z2 c2 B2 A2 | A4 A2 B2- | %7
w: Lord in|_ thy wrath re-|prove me not|Though _ _ I de- *|serve thine _ ire|Nor yet cor-|rect me in|
w: For I|_ am weak there-|fore O Lord,|of _ _ mer- cy _|me for- * bear:|And heal me|Lord, for why?|
w: And now|_ my foes that|vex- ed me,|the _ _ Lord will _|soon de- * fame:|And sud- den-|ly con- found|
 B2 A2 ^G4 || B3 e d3 c | BA B2 A4 |] %10
w: _ thy rage|O Lord _ I|thee _ de- sire|
w: _ thou knowest,|my bones _ do|quake _ with fear.|
w: _ them all,|to their _ re-|buke _ and shame.|
V:3
[K:C] e4 e2 B2 | c2 d2 e4 | A3 a ^g4 || z g2 c'2 b2 a- | a ^g/^f/ g2 a4 || z2 a2 g2 f2 | %6
w: Lord in thy|wrath re- prove|me _ not|Though I de- serve|_ thine _ _ ire|Nor yet cor-|
w: For I am|weak there- fore|O _ Lord,|of mer- cy me|_ for- * * bear:|And heal me|
w: And now my|foes that vex-|ed _ me,|the Lord will soon|_ de- * * fame:|And sud- den-|
 f4 e a2 ^g/^f/ | ^g2 aA e4 || ed/c/ Bc A3 A | B>cdB e4 |] %10
w: rect me _ _ _|in thy _ rage|O _ _ _ _ Lord I|thee _ _ de- sire|
w: Lord, for _ _ _|why? thou _ knowest,|my _ _ _ _ bones do|quake _ _ with fear.|
w: ly con- * * *|found them _ all,|to _ _ _ _ their re-|buke _ _ and shame.|
V:4
 D,4 ^C,3 C, | D,4 A,,4 | B,,2 B,,2 A,,4 || A,4 G,2 F,2 | E,3 E, D,4 || z2 D,2 A,,2 B,,2 | %6
w: Lord in thy|wrath re-|prove me not|Though I de-|serve thine ire|Nor yet cor-|
w: For I am|weak there-|fore O Lord,|of mer- cy|me for- bear:|And heal me|
w: And now my|foes that|vex- ed me,|the Lord will|soon de- fame:|And sud- den-|
 G,,4 ^F,,2 G,,2 | A,,4 A,,4 || A,,4 =B,,^C, D,2- | D,2 ^C,2 D,4 |] %10
w: rect me in|thy rage|O Lord I thee|_ de- sire|
w: Lord, for why?|thou knowest,|my bones do quake|_ with fear.|
w: ly con- found|them all,|to their re- buke|_ and shame.|

